flags/occitania.svg

<svg width="512" height="512" viewBox="0 0 512 512" fill="none" xmlns="http://www.w3.org/2000/svg">
<rect width="512" height="512" fill="var(--flag-palette-bright-red, #d80027)"/>
<path fill-rule="evenodd" clip-rule="evenodd" d="M286.005 75.148C287.295 71.6766 288 67.9206 288 64C288 46.3269 273.673 32 256 32C238.327 32 224 46.3269 224 64C224 67.9206 224.705 71.6766 225.995 75.148L187.009 94.8306C181.329 85.9143 171.355 80 160 80C142.327 80 128 94.3269 128 112C128 129.673 142.327 144 160 144C161.159 144 162.305 143.938 163.432 143.818L173 173L143.818 163.432C143.938 162.305 144 161.159 144 160C144 142.327 129.673 128 112 128C94.3269 128 80 142.327 80 160C80 171.355 85.9143 181.329 94.8306 187.009L75.148 225.995C71.6766 224.705 67.9206 224 64 224C46.3269 224 32 238.327 32 256C32 273.673 46.3269 288 64 288C67.9206 288 71.6766 287.295 75.148 286.005L94.8306 324.991C85.9143 330.671 80 340.645 80 352C80 369.673 94.3269 384 112 384C129.673 384 144 369.673 144 352C144 350.841 143.938 349.695 143.818 348.568L173 339L163.432 368.182C162.305 368.062 161.159 368 160 368C142.327 368 128 382.327 128 400C128 417.673 142.327 432 160 432C171.355 432 181.329 426.086 187.009 417.169L225.995 436.852C224.705 440.323 224 444.079 224 448C224 465.673 238.327 480 256 480C273.673 480 288 465.673 288 448C288 444.079 287.295 440.323 286.005 436.852L324.991 417.169C330.671 426.086 340.645 432 352 432C369.673 432 384 417.673 384 400C384 382.327 369.673 368 352 368C350.841 368 349.695 368.062 348.568 368.182L339 339L368.182 348.568C368.062 349.695 368 350.841 368 352C368 369.673 382.327 384 400 384C417.673 384 432 369.673 432 352C432 340.645 426.086 330.671 417.169 324.991L436.852 286.005C440.323 287.295 444.079 288 448 288C465.673 288 480 273.673 480 256C480 238.327 465.673 224 448 224C444.079 224 440.323 224.705 436.852 225.995L417.169 187.009C426.086 181.329 432 171.355 432 160C432 142.327 417.673 128 400 128C382.327 128 368 142.327 368 160C368 161.159 368.062 162.305 368.182 163.432L339 173L348.568 143.818C349.695 143.938 350.841 144 352 144C369.673 144 384 129.673 384 112C384 94.3269 369.673 80 352 80C340.645 80 330.671 85.9143 324.991 94.8306L286.005 75.148ZM416 256L384 192L288 224L320 128L256 96L192 128L224 224L128 192L96 256L128 320L224 288L192 384L256 416L320 384L288 288L384 320L416 256Z" fill="var(--flag-palette-yellow, #ffda44)"/>
</svg>

<svg xmlns="http://www.w3.org/2000/svg" width="512" height="512" fill="none"><path fill="var(--flag-palette-bright-red, #d80027)" d="M0 0h512v512H0z"/><path fill="var(--flag-palette-yellow, #ffda44)" fill-rule="evenodd" d="M286 75.1a32 32 0 1 0-60 0l-39 19.7a32 32 0 1 0-23.6 49L173 173l-29.2-9.6.2-3.4a32 32 0 1 0-49.2 27l-19.7 39a32 32 0 1 0 0 60l19.7 39a32 32 0 1 0 49 23.6L173 339l-9.6 29.2-3.4-.2a32 32 0 1 0 27 49.2l39 19.7a32 32 0 1 0 60 0l39-19.7a32 32 0 1 0 23.6-49L339 339l29.2 9.6-.2 3.4a32 32 0 1 0 49.2-27l19.7-39a32 32 0 1 0 0-60l-19.7-39a32 32 0 1 0-49-23.6L339 173l9.6-29.2 3.4.2a32 32 0 1 0-27-49.2zM416 256l-32-64-96 32 32-96-64-32-64 32 32 96-96-32-32 64 32 64 96-32-32 96 64 32 64-32-32-96 96 32z" clip-rule="evenodd"/></svg>
